style/icons/1dice.svg

<?xml version="1.0" encoding="UTF-8" standalone="no"?>
<svg
   viewBox="0 0 512 512"
   style="height: 512px; width: 512px;"
   version="1.1"
   id="svg24"
   sodipodi:docname="1dice.svg"
   inkscape:version="1.1.2 (0a00cf5339, 2022-02-04)"
   xmlns:inkscape="http://www.inkscape.org/namespaces/inkscape"
   xmlns:sodipodi="http://sodipodi.sourceforge.net/DTD/sodipodi-0.dtd"
   xmlns="http://www.w3.org/2000/svg"
   xmlns:svg="http://www.w3.org/2000/svg">
  <defs
     id="defs28" />
  <sodipodi:namedview
     id="namedview26"
     pagecolor="#ffffff"
     bordercolor="#666666"
     borderopacity="1.0"
     inkscape:pageshadow="2"
     inkscape:pageopacity="0.0"
     inkscape:pagecheckerboard="0"
     showgrid="false"
     inkscape:zoom="1.6992188"
     inkscape:cx="256"
     inkscape:cy="256"
     inkscape:window-width="1920"
     inkscape:window-height="1052"
     inkscape:window-x="0"
     inkscape:window-y="0"
     inkscape:window-maximized="1"
     inkscape:current-layer="svg24" />
  <g
     class=""
     id="g22"
     style="fill:#000000">
    <g
       id="g20"
       style="fill:#000000">
      <path
         d="m 255.76,44.764 c -6.176,0 -12.353,1.384 -17.137,4.152 L 85.87,137.276 c -9.57,5.536 -9.57,14.29 0,19.826 l 152.753,88.36 c 9.57,5.536 24.703,5.536 34.272,0 l 152.753,-88.36 c 9.57,-5.535 9.57,-14.29 0,-19.825 L 272.895,48.917 c -4.785,-2.77 -10.96,-4.153 -17.135,-4.153 z"
         class=""
         fill="#4a4a4a"
         fill-opacity="1"
         id="path2"
         style="fill:#000000" />
      <path
         d="m 256.686,127.619 c 24.595,0.215 39.573,16.148 26.962,28.679 -1.35,1.341 -2.974,2.578 -4.835,3.683 -17.253,10.403 -47.015,5.822 -53.571,-8.245 -3.092,-6.633 0.117,-13.74 8.383,-18.567 6.107,-3.623 14.425,-5.625 23.06,-5.55 z"
         class=""
         fill="#4a4a4a"
         fill-opacity="1"
         id="path4"
         style="fill:#000000" />
      <path
         d="m 75.67,173.84 c -5.753,-0.155 -9.664,4.336 -9.664,12.28 v 157.696 c 0,11.052 7.57,24.163 17.14,29.69 l 146.93,84.848 c 9.57,5.526 17.14,1.156 17.14,-9.895 V 290.76 c 0,-11.052 -7.57,-24.16 -17.14,-29.688 L 83.146,176.225 c -2.69,-1.555 -5.225,-2.327 -7.476,-2.387 z"
         class=""
         fill="#4a4a4a"
         fill-opacity="1"
         id="path6"
         style="fill:#000000" />
      <path
         d="m 436.443,173.842 c -2.25,0.06 -4.783,0.83 -7.474,2.385 l -146.935,84.847 c -9.57,5.527 -17.14,18.638 -17.14,29.69 v 157.7 c 0,11.05 7.57,15.418 17.14,9.89 L 428.97,373.51 c 9.57,-5.527 17.137,-18.636 17.137,-29.688 v -157.7 c 0,-7.942 -3.91,-12.432 -9.664,-12.278 z"
         class=""
         fill="#4a4a4a"
         fill-opacity="1"
         id="path8"
         style="fill:#000000" />
      <path
         d="m 89.297,195.77 c 14.97,-1.038 33.757,21.763 33.818,41.043 0,0.047 0,0.093 0,0.14 0.02,19.257 -18.717,20.492 -33.727,2.223 -6.983,-8.498 -11.283,-19.256 -11.273,-28.203 -0.017,-8.929 4.244,-14.722 11.182,-15.203 z"
         class=""
         fill="#4a4a4a"
         fill-opacity="1"
         id="path10"
         style="fill:#000000" />
      <path
         d="m 310.817,260.434 c 6.938,0.481 11.2,6.274 11.183,15.203 -0.02,19.257 -18.783,42.092 -33.773,41.104 -6.94,-0.457 -11.217,-6.219 -11.227,-15.124 -0.036,-19.224 18.691,-42.107 33.709,-41.19 0.036,0.002 0.073,0.004 0.109,0.007 z"
         class=""
         fill="#4a4a4a"
         fill-opacity="1"
         id="path12"
         style="fill:#000000" />
      <path
         d="m 145.296,289.1 c 14.97,-1.038 33.757,21.763 33.818,41.043 0,0.047 0,0.093 0,0.14 -0.021,19.233 -18.784,20.404 -33.773,2.107 -6.941,-8.471 -11.218,-19.171 -11.227,-28.087 -0.017,-8.929 4.244,-14.722 11.182,-15.203 z"
         class=""
         fill="#4a4a4a"
         fill-opacity="1"
         id="path14"
         style="fill:#000000" />
      <path
         d="m 422.819,318.48 c 6.937,0.482 11.198,6.275 11.181,15.204 -0.02,19.257 -18.783,42.092 -33.773,41.104 -6.94,-0.457 -11.217,-6.219 -11.227,-15.124 -0.037,-19.223 18.69,-42.107 33.708,-41.191 0.037,0.002 0.073,0.004 0.11,0.007 z"
         class=""
         fill="#4a4a4a"
         fill-opacity="1"
         id="path16"
         style="fill:#000000" />
      <path
         d="m 201.299,383.143 c 14.97,-1.037 33.757,21.765 33.817,41.044 0,0.047 0,0.093 0,0.139 0.02,19.257 -18.717,20.492 -33.727,2.223 -6.983,-8.498 -11.283,-19.256 -11.273,-28.203 -0.017,-8.929 4.244,-14.722 11.182,-15.203 z"
         class="selected"
         fill="#4a4a4a"
         fill-opacity="1"
         id="path18"
         style="fill:#000000" />
    </g>
  </g>
</svg>

<svg xmlns="http://www.w3.org/2000/svg" viewBox="0 0 512 512" style="height: 512px; width: 512px;"><g class="" transform="translate(0,0)" style=""><g><path d="M255.76 44.764C249.584 44.764 243.407 46.148 238.623 48.916L85.87 137.276C76.3 142.812 76.3 151.566 85.87 157.102L238.623 245.462C248.193 250.998 263.326 250.998 272.895 245.462L425.648 157.102C435.218 151.567 435.218 142.812 425.648 137.277L272.895 48.917C268.11 46.147 261.935 44.764 255.76 44.764Z" class="" fill="#4a4a4a" fill-opacity="1"></path><path d="M256.686 127.619C281.281 127.834 296.259 143.767 283.648 156.298C282.298 157.639 280.674 158.876 278.813 159.981C261.56 170.384 231.798 165.803 225.242 151.736C222.15 145.103 225.359 137.996 233.625 133.169C239.732 129.546 248.05 127.544 256.685 127.619Z" class="" fill="#4a4a4a" fill-opacity="1"></path><path d="M75.67 173.84C69.917 173.685 66.006 178.176 66.006 186.12L66.006 343.816C66.006 354.868 73.576 367.979 83.146 373.506L230.076 458.354C239.646 463.88 247.216 459.51 247.216 448.459L247.216 290.76C247.216 279.708 239.646 266.6 230.076 261.072L83.146 176.225C80.456 174.67 77.921 173.898 75.67 173.838Z" class="" fill="#4a4a4a" fill-opacity="1"></path><path d="M436.443 173.842C434.193 173.902 431.66 174.672 428.969 176.227L282.034 261.074C272.464 266.601 264.894 279.712 264.894 290.764L264.894 448.464C264.894 459.514 272.464 463.882 282.034 458.354L428.97 373.51C438.54 367.983 446.107 354.874 446.107 343.822L446.107 186.122C446.107 178.18 442.197 173.69 436.443 173.844Z" class="" fill="#4a4a4a" fill-opacity="1"></path><path d="M89.297 195.77C104.267 194.732 123.054 217.533 123.115 236.813C123.115 236.86 123.115 236.906 123.115 236.953C123.135 256.21 104.398 257.445 89.388 239.176C82.405 230.678 78.105 219.92 78.115 210.973C78.098 202.044 82.359 196.251 89.297 195.77Z" class="" fill="#4a4a4a" fill-opacity="1"></path><path d="M310.817 260.434C317.755 260.915 322.017 266.708 322 275.637C321.98 294.894 303.217 317.729 288.227 316.741C281.287 316.284 277.01 310.522 277 301.617C276.964 282.393 295.691 259.51 310.709 260.427C310.745 260.429 310.782 260.431 310.818 260.434Z" class="" fill="#4a4a4a" fill-opacity="1"></path><path d="M145.296 289.1C160.266 288.062 179.053 310.863 179.114 330.143C179.114 330.19 179.114 330.236 179.114 330.283C179.093 349.516 160.33 350.687 145.341 332.39C138.4 323.919 134.123 313.219 134.114 304.303C134.097 295.374 138.358 289.581 145.296 289.1Z" class="" fill="#4a4a4a" fill-opacity="1"></path><path d="M422.819 318.48C429.756 318.962 434.017 324.755 434 333.684C433.98 352.941 415.217 375.776 400.227 374.788C393.287 374.331 389.01 368.569 389 359.664C388.963 340.441 407.69 317.557 422.708 318.473C422.745 318.475 422.781 318.477 422.818 318.48Z" class="" fill="#4a4a4a" fill-opacity="1"></path><path d="M201.299 383.143C216.269 382.106 235.056 404.908 235.116 424.187C235.116 424.234 235.116 424.28 235.116 424.326C235.136 443.583 216.399 444.818 201.389 426.549C194.406 418.051 190.106 407.293 190.116 398.346C190.099 389.417 194.36 383.624 201.298 383.143Z" class="selected" fill="#4a4a4a" fill-opacity="1"></path></g></g></svg>
